X:1
T:If a Lady's Wearin' Pantaloons
M:6/8
L:1/8
K:C
 G2 F| E2 G c2 d| c2 G E2 G| A2 B c2 A| G2 z G2 F| E2 G c2 d| e2 e d2 c|\
 d6-| d2 z G2 F| E2 G c2 d| c2 G E2 G| A2 B c2 A| G2 z e2 d| c2 B c2 A|\
 B2 A B2 d| c6-| c2 z c2 d| e2 ^d e2 c| =d2 ^c d2 B| =c2 B c2 A| B2 A G2 G|\
 A2 B c2 A| G2 c f2 e| d6-| d2 z G2 F| E2 G c2 d| c2 G E2 G| A2 B c2 A|\
 GG z e2- d| c2 B c2 A| B2 G B2 d| c6-| c4 z2| e2 ^d e2 c| =d2 ^c d2 B|\
 =c2 B c2 A| G3 G2 F| E2 E A2 B| c2 c B2 A| B6-| B2 z [/2/2] G2 [/2/2] F|\
 E2 G c2 d| c2 c c2 B| A2 B c2 A| G2 G e2- d| c2 B c2 A| B2 G B2 d|\
 c6-| c2 z z3| e2 ^d e2 c| =d2 ^c d2 B| =c2 B c2 A| G3 G2 F| E2 E A2 B|\
 c2 c B2 A| B2 ^A B2 c| B2 z G2 F| E2 G c2 d| c c2 c2 B| A2 B c2 A|\
 G2 G e2 d| c2 B c2 A| B2 G B2 d| c6-| c2 z||
